X:328
T: ES FUHR EIN FUHRKNECHT UEBERN RHEIN
N: E0186
O: Europa, Mitteleuropa, Deutschland; Frankreich, Elsass
R: erzaehlendes Volks - Lied, Sage, Familien - Geschichte, Mord
M: 2/4
L: 1/8
K: G
D | G2_B2 | A2d2 | c_BA
D | G2_B2 | A2d2 | c_BA
B | cccd | _BAG
D | G2A2 | _Bcd2 | _B2AG | G2z

